public/assets/icons/design.svg

<svg fill="none" height="32" viewBox="0 0 32 32" width="32" xmlns="http://www.w3.org/2000/svg"><g fill="#fff"><path d="m28.1655 12.4282h-1.9465v-5.50849c0-.76886-.3114-1.51825-.8565-2.06326-.545-.54501-1.2944-.85645-2.0632-.85645h-19.46474c-.77858 0-1.51824.31144-2.06326.85645-.55474.54501-.856444 1.2944-.856444 2.06326v13.62529c0 .7786.301704 1.5183.856444 2.0633.54502.5547 1.28468.8564 2.06326.8564h8.75914v1.9465h-2.91972c-.26277 0-.50608.107-.691.292-.18491.1751-.28224.4282-.28224.6812 0 .2531.09733.5061.28224.691.18492.1849.42823.2823.691.2823h7.78592c.253 0 .5061-.0974.691-.2823.1751-.1849.2822-.4282.2822-.691 0-.2627-.1071-.5061-.2822-.6812-.1849-.185-.438-.292-.691-.292h-2.9197v-1.9465h5.8394v1.6156c0 1.6058 1.3041 2.9197 2.9197 2.9197h4.8662c1.6155 0 2.9197-1.3139 2.9197-2.9197v-9.7324c0-1.6155-1.3042-2.9197-2.9197-2.9197zm-25.30417-5.50849c0-.25304.09732-.50608.28224-.68127.18491-.18491.42822-.29197.69099-.29197h19.46474c.253 0 .5061.10706.691.29197.1752.17519.2822.42823.2822.68127v5.50849h-.9732c-1.6156 0-2.9197 1.3042-2.9197 2.9197v1.3042h-17.51827zm.97323 14.59849c-.26277 0-.50608-.0973-.69099-.2822-.18492-.1849-.28224-.4282-.28224-.691v-1.9465h17.51827v2.9197zm25.30414 3.5621c0 .5353-.438.9732-.9732.9732h-4.8662c-.5353 0-.9733-.4379-.9733-.9732v-9.7324c0-.545.438-.9732.9733-.9732h4.8662c.5352 0 .9732.4282.9732.9732z"/><path d="m30.1119 16.9732c.5375 0 .9732-.4357.9732-.9732s-.4357-.9732-.9732-.9732-.9732.4357-.9732.9732.4357.9732.9732.9732z"/></g></svg>

<svg width="32" height="32" viewBox="0 0 32 32" fill="none" xmlns="http://www.w3.org/2000/svg">
<path d="M28.1655 12.4282H26.219V6.91971C26.219 6.15085 25.9076 5.40146 25.3625 4.85645C24.8175 4.31144 24.0681 4 23.2993 4H3.83456C3.05598 4 2.31632 4.31144 1.7713 4.85645C1.21656 5.40146 0.914856 6.15085 0.914856 6.91971V20.545C0.914856 21.3236 1.21656 22.0633 1.7713 22.6083C2.31632 23.163 3.05598 23.4647 3.83456 23.4647H12.5937V25.4112H9.67398C9.41121 25.4112 9.1679 25.5182 8.98298 25.7032C8.79807 25.8783 8.70074 26.1314 8.70074 26.3844C8.70074 26.6375 8.79807 26.8905 8.98298 27.0754C9.1679 27.2603 9.41121 27.3577 9.67398 27.3577H17.4599C17.7129 27.3577 17.966 27.2603 18.1509 27.0754C18.326 26.8905 18.4331 26.6472 18.4331 26.3844C18.4331 26.1217 18.326 25.8783 18.1509 25.7032C17.966 25.5182 17.7129 25.4112 17.4599 25.4112H14.5402V23.4647H20.3796V25.0803C20.3796 26.6861 21.6837 28 23.2993 28H28.1655C29.781 28 31.0852 26.6861 31.0852 25.0803V15.3479C31.0852 13.7324 29.781 12.4282 28.1655 12.4282ZM2.86133 6.91971C2.86133 6.66667 2.95865 6.41363 3.14357 6.23844C3.32848 6.05353 3.57179 5.94647 3.83456 5.94647H23.2993C23.5523 5.94647 23.8054 6.05353 23.9903 6.23844C24.1655 6.41363 24.2725 6.66667 24.2725 6.91971V12.4282H23.2993C21.6837 12.4282 20.3796 13.7324 20.3796 15.3479V16.6521H2.86133V6.91971ZM3.83456 21.5182C3.57179 21.5182 3.32848 21.4209 3.14357 21.236C2.95865 21.0511 2.86133 20.8078 2.86133 20.545V18.5985H20.3796V21.5182H3.83456ZM29.1387 25.0803C29.1387 25.6156 28.7007 26.0535 28.1655 26.0535H23.2993C22.764 26.0535 22.326 25.6156 22.326 25.0803V15.3479C22.326 14.8029 22.764 14.3747 23.2993 14.3747H28.1655C28.7007 14.3747 29.1387 14.8029 29.1387 15.3479V25.0803Z" fill="white"/>
<path d="M30.1119 16.9732C30.6494 16.9732 31.0851 16.5375 31.0851 16C31.0851 15.4625 30.6494 15.0268 30.1119 15.0268C29.5744 15.0268 29.1387 15.4625 29.1387 16C29.1387 16.5375 29.5744 16.9732 30.1119 16.9732Z" fill="white"/>
</svg>
